X:2441
T:Calliope House (E maj version)
R:Jig
C:Dave Richardson
N:Usually played in key of E, so capo at 2nd fret
M:6/8
L:1/8
K:E % transposed from D
|:eBB gBB| fBB gfe|cff f2e| fge c2c|
BBB B2G|B2c e2f|1 g2g gfe| f3 ecB:|2 g2g fgf| e3 ega||
|:bbb gbb| fbb efg|a2a gag| f2f fec|
BBB B2G| B2c e2f|1 g2g gfe| f3 fga:|2 g2g fgf| e3 e2B|


